X:1
T:Partition sans titre
C:Compositeur / Arrangeur
L:1/8
M:4/4
I:linebreak $
K:A
V:1 treble nm="Violon" snm="Vln."
V:1
"E" EGAG EA B2 |"A" Aced cA A2 |"E" EGAG EA B2 | BABd"A" cA A2 :|[M:2/4] Ac eg |: %5
[M:4/4]"A" a3 a a2 ga | bAaA"C#m" g2 ec |"D" dfed"A" cABc |1"D" defg"A" agfe :|2"D" dcBc"A" BAAA |] %10
